X:82
T:Cheyene 
C:Bill Monroe solo
N:
R:bluegrass
L:1/8
Q:1/4=238
M:4/4
K:C
z6 D2 | "Gm"[GG,][GG,] z[GG,] [G2G,2] [GG,][GG,] | _B2 [GG,][GG,] z[GG,] [G2G,2] | 
gd c_B =BG (3^FGD | G,2 [D2G,2] [DG,][DG,] [A2D2G,2] | "D7"[cEG,]c zc cd zc | 
_B=B G{_B}=B zG (3^FGD | "Gm"G,6 (3B,CG, | G,6 D2 | "Gm"[GG,][GG,] z[GG,] [G2G,2] [GG,][GG,] | 
_B2 [GG,][GG,] z[GG,] [G2G,2] | gd c_B =BG (3^FGD | G,2 [D2G,2] [DG,][DG,] [A2D2G,2] | 
"D7"[cEG,]c zc cd zc | _B=B G{_B}=B zG (3^FGD | "Gm"G,6 (3B,CG, | 
K:Bb
G,8 | z8 | z8 | z8 | z8 | z8 | 


